X:14
T:Blackthorn Stick, The
R:set dance
Z:id:hn-setdance-14
M:6/8
L:1/8
K:G
d|BAG E2G|DB,D EGF|G2D GAB|cdc BAG|BdB A2D||
|:GAB cdc|BAG Bcd|edc BAG|EGE DB,D|1 EGF G2D:|2 EGF G2||
<end>
<start>
